!!!COM:	Bach, Johann Sebastian
!!!CDT:	1685/02/21/-1750/07/28/
!!!OTL@@DE:	O Haupt voll Blut und Wunden
!!!SCT:	BWV 244/15,17
!!!PC#:	98
!!!AGN:	chorale
**kern	**kern	**kern	**kern
*ICvox	*ICvox	*ICvox	*ICvox
*Ibass	*Itenor	*Ialto	*Isoprn
*I"Bass	*I"Tenor	*I"Alto	*I"Soprano
*>[A,A,B]	*>[A,A,B]	*>[A,A,B]	*>[A,A,B]
*>norep[A,B]	*>norep[A,B]	*>norep[A,B]	*>norep[A,B]
*>A	*>A	*>A	*>A
*	*oclefC4	*oclefC3	*oclefC1
*clefF4	*clefGv2	*clefG2	*clefG2
*k[f#c#]	*k[f#c#]	*k[f#c#]	*k[f#c#]
*D:	*D:	*D:	*D:
*M4/4	*M4/4	*M4/4	*M4/4
*met(c)	*met(c)	*met(c)	*met(c)
*MM100	*MM100	*MM100	*MM100
4D	4A	4d	4f#
=1	=1	=1	=1
4G	4G	4d	4b
4F#	4A	4d	4a
8BBL	8BL	8dL	4g
8C#J	8AJ	8e	.
4D	4A	8e	4f#
.	.	8dJ	.
=2	=2	=2	=2
4GG	4B	4d	2e
4AA	4A	4c#	.
4D;	4A;	4d;	4f#;
4C#	4A#	4e	4cc#
=3	=3	=3	=3
8BBL	4F#	8dL	4dd
8C#J	.	8eJ	.
8DL	4B	4f#	4dd
8EJ	.	.	.
4F#	4B	4f#	8cc#L
.	.	.	8bJ
4FF#	4A#	8f#L	4cc#
.	.	8eJ	.
=4	=4	=4	=4
2.BB;	2.B;	2.d;	2.b;
=:|!	=:|!	=:|!	=:|!
*>B	*>B	*>B	*>B
4B	4f#	8bL	4dd
.	.	8anXJ	.
=5	=5	=5	=5
4E	8eL	4g	8cc#L
.	8dJ	.	8bJ
4F#	4c#	8f#L	4a
.	.	8eJ	.
8GL	8BL	4d	4b
8F#J	8AJ	.	.
4E	8GL	4g	4cc#
.	8AJ	.	.
=6	=6	=6	=6
2D	4B	4g	2dd
.	8AL	8f#L	.
.	8GJ	8eJ	.
4D;	4A;	4f#;	4dd;
4D	4d	4f#	4a
=7	=7	=7	=7
4G	4d	4g	4b
4D	8dL	4f#	4a
.	8c#J	.	.
8EL	4B	4f#	4g
8F#	.	.	.
8G	4B	4e	4g
8AJ	.	.	.
=8	=8	=8	=8
2.B;	2.B;	2.d#;	2.f#;
4G#	4B	4e	4dd
=9	=9	=9	=9
4A	4A	4e	8cc#L
.	.	.	8ddJ
4C#	8AL	4e	4ee
.	8G#J	.	.
8F#L	8AL	4f#	4dd
8G#XJ	8BJ	.	.
4A	8c#L	4e	4cc#
.	8AJ	.	.
=10	=10	=10	=10
4D	8F#L	4f#	2b
.	8BJ	.	.
4E	4G#	4e	.
4AA;	4A;	4e;	4cc#;
8DL	4A	4d	4f#
8C#J	.	.	.
=11	=11	=11	=11
4BB	4G	8dL	4gnX
.	.	8c#J	.
4AA	4A	4d	4f#
4GG	4B	4d	4e
4AA	8EL	4c#	4a
.	8AJ	.	.
=12	=12	=12	=12
2.DD;	2.A;	2.d;	2.f#;
==	==	==	==
*-	*-	*-	*-
!!!YOR1: 371 vierstimmige Choralges&auml;nge von Johann Sebastian Bach, 
!!!YOR2: 4th ed. by Alfred D&ouml;rffel (Leipzig: Breitkopf und H&auml;rtel, 
!!!YOR2: c.1875). 178 pp. Plate "V.A.10".  reprint: J.S. Bach, 371 Four-Part 
!!!YOR4: Chorales (New York: Associated Music Publishers, Inc., c.1940).
!!!SMS: B&H, 4th ed, Alfred D&ouml;rffel, c.1875, plate V.A.10
!!!EED:  Craig Stuart Sapp
!!!EEV:  2009/05/22
